src/img/footer-logo.svg

<svg width="125" height="75" viewBox="0 0 125 75" fill="none" xmlns="http://www.w3.org/2000/svg">
<path d="M31.8328 29.4883H88.3833V21.507H31.8328V8.04236H88.3833V0.0610352H27.478C25.454 0.0610352 23.7979 1.70604 23.7979 3.7166V43.0139H31.8328V29.4883Z" fill="#44C697"/>
<path d="M97.5835 0H93.1674V42.9529H101.202V3.65556C101.264 1.645 99.6075 0 97.5835 0Z" fill="white"/>
<path d="M107.581 27.9648V49.289H17.4191V27.9648H4.60014C2.02409 27.9648 4.57764e-05 30.0363 4.57764e-05 32.5343V44.6586C4.57764e-05 47.2175 2.08542 49.2281 4.60014 49.2281H7.5442L8.83223 64.2159V74.9998H12.1443L16.0084 64.2159H108.992L112.856 74.9998H116.168V64.2159L117.456 49.2281H120.4C122.976 49.2281 125 47.1566 125 44.6586V32.5343C125 29.9754 122.915 27.9648 120.4 27.9648H107.581Z" fill="white"/>
</svg>

<svg width="125" height="75" fill="none" xmlns="http://www.w3.org/2000/svg"><path d="M31.833 29.488h56.55v-7.981h-56.55V8.042h56.55V.061H27.478c-2.024 0-3.68 1.645-3.68 3.656v39.297h8.035V29.488z" fill="#44C697"/><path d="M97.584 0h-4.417v42.953h8.035V3.656C101.264 1.645 99.608 0 97.584 0z" fill="#fff"/><path d="M107.581 27.965v21.324H17.419V27.965H4.6a4.579 4.579 0 00-4.6 4.57v12.124c0 2.559 2.085 4.57 4.6 4.57h2.944l1.288 14.987V75h3.312l3.864-10.784h92.984L112.856 75h3.312V64.216l1.288-14.988h2.944c2.576 0 4.6-2.071 4.6-4.57V32.535c0-2.559-2.085-4.57-4.6-4.57h-12.819z" fill="#fff"/></svg>
